public/assets/images/icons/yellow/visibility-invisible/file-pdf.svg

<svg width="16" height="16" xmlns="http://www.w3.org/2000/svg" viewBox="0 0 16 16" shape-rendering="geometricPrecision" fill="#ffad00"><defs><mask id="a"><rect fill="#fff" width="100%" height="100%"/><path d="M12.997.858a4.809 4.809 0 0 0-4.253 2.563 4.81 4.81 0 0 0 8.506 0A4.812 4.812 0 0 0 12.997.858z" fill="#000"/></mask></defs><path d="M12.997 1.611a3.394 3.394 0 0 0-3.003 1.81 3.397 3.397 0 0 0 6.006 0 3.398 3.398 0 0 0-3.003-1.81zm-.001 3.396a1.587 1.587 0 1 1 0-3.174 1.587 1.587 0 0 1 0 3.174z" fill="#cb1800"/><g mask="url(#a)"><path d="M10.021 15.177l3.437-3.165h-3.437z"/><path d="M2.02 0v16h7.021v-4.905h4.941V0H2.02zM13 9.97H8v5H3.083v-14H13v9z"/><path fill-rule="evenodd" clip-rule="evenodd" d="M10.313 6.987c.843.67 1.525.392 1.426.264-.302-.391-.896-.391-1.426-.264zm1.093-.377c-.844-.286-1.966-.002-1.923.034-.567-.279-1.33-.685-1.749-2.018-.703-2.234 0-2.955.046-1.558l.142.948s.485-1.184.172-2.047c-.274-.752-1.063-.639-1.11.751-.026.766.159 1.918.244 2.097 0 0-.73 2.149-1.813 3.84-1.051 1.642-1.115 1.088-.86.541.303-.65.817-.991.989-1.263 0 0-.798.062-1.418 1.127-.392.673-.439 2.345 1.233.532.332-.36.803-1.116 1.018-1.566 0 0 .973-.425 3.294-.875 0 0 .626.457 1.438.645 1.009.232 2.046-.594.297-1.188zm-4.749.708l.845-1.941c.56 1.19 1.353 1.433 1.353 1.433-.344.044-2.198.508-2.198.508z"/></g></svg>

<?xml version="1.0"?><!DOCTYPE svg PUBLIC "-//W3C//DTD SVG 1.1//EN" "http://www.w3.org/Graphics/SVG/1.1/DTD/svg11.dtd"><svg width="16px" height="16px" xmlns="http://www.w3.org/2000/svg" viewBox="0 0 16 16" shape-rendering="geometricPrecision" fill="#ffad00"><defs><mask id="visibility-invisible-path"><rect fill="#fff" width="100%" height="100%"/><path d="M12.997,0.858c-1.845,0-3.446,1.039-4.253,2.563c0.808,1.523,2.408,2.562,4.253,2.562 c1.844,0,3.444-1.039,4.253-2.562C16.441,1.897,14.841,0.858,12.997,0.858z" fill="#000"/></mask></defs><g id="visibility-invisible" display="inline" fill="#cb1800"><g><g><path d="M12.997,1.611c-1.303,0-2.433,0.733-3.003,1.81c0.57,1.075,1.7,1.809,3.003,1.809c1.302,0,2.432-0.733,3.003-1.809 C15.429,2.345,14.299,1.611,12.997,1.611z M12.996,5.007c-0.876,0-1.587-0.71-1.587-1.586c0-0.877,0.711-1.588,1.587-1.588 c0.877,0,1.588,0.711,1.588,1.588C14.584,4.297,13.873,5.007,12.996,5.007z"/></g></g></g><g mask="url(#visibility-invisible-path)"><g><polygon points="10.021,15.177 13.458,12.012 10.021,12.012"/><path d="M2.02,0v16h7.021v-4.905h4.941V0H2.02z M13,9.97h-5l0,5H3.083v-14H13V9.97z"/></g><path fill-rule="evenodd" clip-rule="evenodd" d="M10.313,6.987c0.843,0.67,1.525,0.392,1.426,0.264 C11.437,6.86,10.843,6.86,10.313,6.987z M11.406,6.61c-0.844-0.286-1.966-0.002-1.923,0.034C8.916,6.365,8.153,5.959,7.734,4.626 c-0.703-2.234,0-2.955,0.046-1.558l0.142,0.948c0,0,0.485-1.184,0.172-2.047C7.82,1.217,7.031,1.33,6.984,2.72 C6.958,3.486,7.143,4.638,7.228,4.817c0,0-0.73,2.149-1.813,3.84c-1.051,1.642-1.115,1.088-0.86,0.541 c0.303-0.65,0.817-0.991,0.989-1.263c0,0-0.798,0.062-1.418,1.127c-0.392,0.673-0.439,2.345,1.233,0.532 c0.332-0.36,0.803-1.116,1.018-1.566c0,0,0.973-0.425,3.294-0.875c0,0,0.626,0.457,1.438,0.645 C12.118,8.03,13.155,7.204,11.406,6.61z M6.657,7.318l0.845-1.941c0.56,1.19,1.353,1.433,1.353,1.433 C8.511,6.854,6.657,7.318,6.657,7.318z"/></g></svg>
